build/img/icons/css.svg

<svg width="96" height="96" viewBox="0 0 96 96" fill="none" xmlns="http://www.w3.org/2000/svg">
<path d="M82 4H14L15.0938 19.4321H46.6327L16.7346 35.048L17.2815 50.6639H62.6756L60.8525 71.4238L47.9088 75.833L35.1475 71.4238L34.2359 60.952H18.7399L20.3807 81.5282L47.9088 92L75.6193 81.5282L79.2654 35.048H51.555L80.7239 19.4321L82 4Z" fill="#FFFDF8"/>
</svg>

<svg width="96" height="96" fill="none" xmlns="http://www.w3.org/2000/svg"><path d="M82 4H14l1.094 15.432h31.539L16.735 35.048l.547 15.616h45.394l-1.824 20.76-12.943 4.409-12.761-4.41-.912-10.471H18.74l1.64 20.576L47.91 92l27.71-10.472 3.646-46.48h-27.71l29.169-15.616L82 4z" fill="#FFFDF8"/></svg>
